static/assets/template/assets/img/icons/essential/detailed/Pay_With_Cash.svg

<svg height="149" viewBox="0 0 101 149" width="101" xmlns="http://www.w3.org/2000/svg"><g fill="none" fill-rule="evenodd" transform="translate(2 2)"><path d="m97.1 5.9v107.3c0 3.2-2.6 5.8-5.8 5.8h-46.5c-3.2 0-5.8-2.6-5.8-5.8v-107.3c0-3.2 2.6-5.8 5.8-5.8h46.5c3.2 0 5.8 2.6 5.8 5.8z" fill-rule="nonzero"/><path d="m97.9 9.8v103.6c0 3.2-2.6 5.8-5.8 5.8h-43.2c-3.2 0-5.8-2.6-5.8-5.8v-103.6c0-3.2 2.6-5.8 5.8-5.8h43.2c3.2 0 5.8 2.6 5.8 5.8z" fill-rule="nonzero"/><path d="m39 11.9v-5.5c0-3.5 2.8-6.3 6.3-6.3h45.6c3.5 0 6.3 2.8 6.3 6.3v106.3c0 3.5-2.8 6.3-6.3 6.3h-30.5" stroke-linecap="round" stroke-linejoin="round" stroke-width="3"/><path d="m39 17.7v-.4" stroke-linecap="round" stroke-linejoin="round" stroke-width="3"/><path d="m39 96.5v-67.6" stroke-linecap="round" stroke-linejoin="round" stroke-width="3"/><path d="m39 46.1v27.3c-13.3 14.8-11.7 11-12.5 25.4-.1 1.2.7 2.4 1.9 2.7l9.8 2.9c1.4.4 2.9-.1 3.6-2 1.9-4.6.5-1.1 7.2-17.3.4-.9.9-1.7 1.4-2.5 3-3.8 8.3-5.2 12.9-3.1 1.9.9 3 2.8 3 4.8 0 .6-.1 1.1-.3 1.7-17.8 51.7-11.7 41.1-31.1 58.6-1.9 1.7-2.3.4-31.2.7-1.9 0-3.5-1.5-3.5-3.5v-51.3c0-4.2 1.7-8.2 4.7-11.2z" fill-rule="nonzero"/><path d="m43.3 98.8c.9-.7.5-.1 7.2-16.3 3-3.8 8.3-5.2 12.9-3.1 1.9.9 3 2.8 3 4.8 0 .6-.1 1.1-.3 1.7-17.3 50.1-12.4 41.8-27.2 55.1-1.4.5-12.7-.1-30.1.1-1.9 0-3.5-1.5-3.5-3.5v-51.3c0-4.2 1.7-8.2 4.7-11.2l29-28.4v26.5c-13.3 14.8-11.7 11-12.5 25.4-.1 1.2.7 2.4 1.9 2.7 13.4 4.1 11.8 4.8 14.9-2.5z" fill-rule="nonzero"/><g stroke-linecap="round" stroke-linejoin="round" stroke-width="3"><path d="m1 144c-.5-.6-.8-1.3-.8-2.2v-6.1"/><path d="m.3 122.8v-32.2c0-4.2 1.7-8.2 4.7-11.2l34-33.3v27.3c-9.6 10.7-11.7 12.2-12 17.1l-.5 8.3c-.1 1.2.7 2.4 1.9 2.7l9.8 2.9c1.3.4 2.8-.1 3.6-2l7.2-17.3c2.3-5.6 8.8-8.1 14.3-5.5 1.9.9 3 2.8 3 4.8 0 .6-.1 1.1-.3 1.7-14.7 42.7-14.1 43.3-19.5 48.1l-11.7 10.5"/><path d="m.3 128.2v-.4"/><path d="m46.8 75.5v-62c3 0 5.5-2.4 5.5-5.5h31.9c0 3 2.4 5.5 5.5 5.5v90.3c-3 0-5.5 2.4-5.5 5.5h-13.4"/><path d="m70 71.1c-.6.1-1.2.1-1.8.1-8.7 0-15.7-6.1-15.7-13.6 0-3.4 1.4-6.5 3.8-8.9"/><path d="m61.4 45.3c2.1-.9 4.4-1.3 6.8-1.3 8.7 0 15.7 6.1 15.7 13.6 0 5.1-3.2 9.5-7.9 11.8"/><path d="m67.8 90.7v3.4"/><path d="m67.8 31.5v-7.4"/></g></g></svg>

<?xml version="1.0" encoding="UTF-8"?>
<svg width="101px" height="149px" viewBox="0 0 101 149" version="1.1" xmlns="http://www.w3.org/2000/svg" xmlns:xlink="http://www.w3.org/1999/xlink">
    <!-- Generator: Sketch 51.2 (57519) - http://www.bohemiancoding.com/sketch -->
    <title>Pay_With_Cash</title>
    <desc>Created with Sketch.</desc>
    <defs></defs>
    <g id="Page-1" stroke="none" stroke-width="1" fill="none" fill-rule="evenodd">
        <g id="Pay_With_Cash" transform="translate(2.000000, 2.000000)">
            <g id="Group">
                <path d="M97.1,5.9 L97.1,113.2 C97.1,116.4 94.5,119 91.3,119 L44.8,119 C41.6,119 39,116.4 39,113.2 L39,5.9 C39,2.7 41.6,0.1 44.8,0.1 L91.3,0.1 C94.5,0.1 97.1,2.7 97.1,5.9 Z" id="Shape" class="fill-neutral" fill-rule="nonzero"></path>
                <path d="M97.9,9.8 L97.9,113.4 C97.9,116.6 95.3,119.2 92.1,119.2 L48.9,119.2 C45.7,119.2 43.1,116.6 43.1,113.4 L43.1,9.8 C43.1,6.6 45.7,4 48.9,4 L92.1,4 C95.3,4 97.9,6.6 97.9,9.8 Z" id="Shape" class="fill-primary-300" fill-rule="nonzero"></path>
                <path d="M39,11.9 L39,6.4 C39,2.9 41.8,0.1 45.3,0.1 L90.9,0.1 C94.4,0.1 97.2,2.9 97.2,6.4 L97.2,112.7 C97.2,116.2 94.4,119 90.9,119 L60.4,119" id="Shape" class="stroke-primary" stroke-width="3" stroke-linecap="round" stroke-linejoin="round"></path>
                <path d="M39,17.7 L39,17.3" id="Shape" class="stroke-primary" stroke-width="3" stroke-linecap="round" stroke-linejoin="round"></path>
                <path d="M39,96.5 L39,28.9" id="Shape" class="stroke-primary" stroke-width="3" stroke-linecap="round" stroke-linejoin="round"></path>
                <path d="M39,46.1 L39,73.4 C25.7,88.2 27.3,84.4 26.5,98.8 C26.4,100 27.2,101.2 28.4,101.5 L38.2,104.4 C39.6,104.8 41.1,104.3 41.8,102.4 C43.7,97.8 42.3,101.3 49,85.1 C49.4,84.2 49.9,83.4 50.4,82.6 C53.4,78.8 58.7,77.4 63.3,79.5 C65.2,80.4 66.3,82.3 66.3,84.3 C66.3,84.9 66.2,85.4 66,86 C48.2,137.7 54.3,127.1 34.9,144.6 C33,146.3 32.6,145 3.7,145.3 C1.8,145.3 0.2,143.8 0.2,141.8 L0.2,90.5 C0.2,86.3 1.9,82.3 4.9,79.3 L39,46.1 Z" id="Shape" class="fill-neutral" fill-rule="nonzero"></path>
                <path d="M43.3,98.8 C44.2,98.1 43.8,98.7 50.5,82.5 C53.5,78.7 58.8,77.3 63.4,79.4 C65.3,80.3 66.4,82.2 66.4,84.2 C66.4,84.8 66.3,85.3 66.1,85.9 C48.8,136 53.7,127.7 38.9,141 C37.5,141.5 26.2,140.9 8.8,141.1 C6.9,141.1 5.3,139.6 5.3,137.6 L5.3,86.3 C5.3,82.1 7,78.1 10,75.1 L39,46.7 L39,73.2 C25.7,88 27.3,84.2 26.5,98.6 C26.4,99.8 27.2,101 28.4,101.3 C41.8,105.4 40.2,106.1 43.3,98.8 Z" id="Shape" class="fill-primary-100" fill-rule="nonzero"></path>
                <path d="M1,144 C0.5,143.4 0.2,142.7 0.2,141.8 L0.2,135.7" id="Shape" class="stroke-primary" stroke-width="3" stroke-linecap="round" stroke-linejoin="round"></path>
                <path d="M0.3,122.8 L0.3,90.6 C0.3,86.4 2,82.4 5,79.4 L39,46.1 L39,73.4 C29.4,84.1 27.3,85.6 27,90.5 L26.5,98.8 C26.4,100 27.2,101.2 28.4,101.5 L38.2,104.4 C39.5,104.8 41,104.3 41.8,102.4 L49,85.1 C51.3,79.5 57.8,77 63.3,79.6 C65.2,80.5 66.3,82.4 66.3,84.4 C66.3,85 66.2,85.5 66,86.1 C51.3,128.8 51.9,129.4 46.5,134.2 L34.8,144.7" id="Shape" class="stroke-primary" stroke-width="3" stroke-linecap="round" stroke-linejoin="round"></path>
                <path d="M0.3,128.2 L0.3,127.8" id="Shape" class="stroke-primary" stroke-width="3" stroke-linecap="round" stroke-linejoin="round"></path>
            </g>
            <path d="M46.8,75.5 L46.8,13.5 C49.8,13.5 52.3,11.1 52.3,8 L84.2,8 C84.2,11 86.6,13.5 89.7,13.5 L89.7,103.8 C86.7,103.8 84.2,106.2 84.2,109.3 L70.8,109.3" id="Shape" class="stroke-primary" stroke-width="3" stroke-linecap="round" stroke-linejoin="round"></path>
            <path d="M70,71.1 C69.4,71.2 68.8,71.2 68.2,71.2 C59.5,71.2 52.5,65.1 52.5,57.6 C52.5,54.2 53.9,51.1 56.3,48.7" id="Shape" class="stroke-primary" stroke-width="3" stroke-linecap="round" stroke-linejoin="round"></path>
            <path d="M61.4,45.3 C63.5,44.4 65.8,44 68.2,44 C76.9,44 83.9,50.1 83.9,57.6 C83.9,62.7 80.7,67.1 76,69.4" id="Shape" class="stroke-primary" stroke-width="3" stroke-linecap="round" stroke-linejoin="round"></path>
            <path d="M67.8,90.7 L67.8,94.1" id="Shape" class="stroke-primary" stroke-width="3" stroke-linecap="round" stroke-linejoin="round"></path>
            <path d="M67.8,31.5 L67.8,24.1" id="Shape" class="stroke-primary" stroke-width="3" stroke-linecap="round" stroke-linejoin="round"></path>
        </g>
    </g>
</svg>
